X:334
T:Old Ebeneezer Scrooge
C:Bill Monroe
N:
R:bluegrass
L:1/8
Q:1/4=198
M:4/4
K:A
z8 | z8 |: "G"E2 AA =cB A=G | "F"=G2 Bd BA GA | "G"E2 AA =cB A=G | "D"E=G GB "G"A2 A2 | 
E2 AA =cB A=G | "F"=G2 Bd BA GA | "G"E2 AA =cB A=G |1 E"D"=G GB "G"A2 A2 :|2 E"D"=G GB "G"A2 de | 
|: "G"e2 ee =ge e2 | "C"=ga ag ag ed | "G"e2 ee =gf eA | "D"=cA Bd A=G E2 | "G"A=c de =ga af | 
"C"=gf eg fe dc | "G"A2 =cB A=G GE |1 E"D"=G GB "G"A2 ee :|2 E=G "D"GB A2 =CD | 
[A2E2] [AE]=c BA =GE | "F"=G2 B,D EG FD | "G"[A2E2] [A2E2] AE F=G | "D"A=c de dc A2 | 
"G"[A2E2] [AE]=c BA =GE | "F"=G2 B,D EG FD | "G"EF =GA =cA cA :| "D"E=G GB "G"A2 A2 | 
|: "G"A,=C E=G "F"FA FG | "D"E2 AA "G"=cA cA | A,=C E=G "F"FA FG | "D"E=G GB "G"A2 A2 | 
A,=C E=G "F"FA FG | "D"E2 AA "G"=cA cA | A,=C E=G "F"FA FG | "D"E=G GB "G"A2 A2 :| 


